dist/img/icons/Constructions.svg

<svg width="41" height="40" viewBox="0 0 41 40" fill="none" xmlns="http://www.w3.org/2000/svg">
<g clip-path="url(#clip0_202_24)">
<rect x="0.5" y="16.6666" width="23.3333" height="23.3333" fill="#7595FD"/>
<path d="M32.1517 3.33337H15.5167C13.665 3.33337 12.1667 4.83171 12.1667 6.68337V16.0784L4.33001 23.815C4.0952 24.0473 3.93468 24.344 3.86881 24.6676C3.80295 24.9913 3.83471 25.3271 3.96006 25.6327C4.08542 25.9382 4.29872 26.1996 4.5729 26.3837C4.84707 26.5678 5.16976 26.6663 5.50001 26.6667V35C5.50001 35.4421 5.6756 35.866 5.98816 36.1786C6.30073 36.4911 6.72465 36.6667 7.16668 36.6667H33.8333C34.2754 36.6667 34.6993 36.4911 35.0119 36.1786C35.3244 35.866 35.5 35.4421 35.5 35V6.68171C35.5 4.83171 34.0033 3.33337 32.1517 3.33337ZM18.7033 25.185V33.3334H8.83334V24.0534L13.8117 19.1384L18.7033 24.1434V25.185V25.185ZM22.1667 15H18.8333V11.6667H22.1667V15ZM28.8333 28.3334H25.5V25H28.8333V28.3334ZM28.8333 21.6667H25.5V18.3334H28.8333V21.6667ZM28.8333 15H25.5V11.6667H28.8333V15Z" fill="#292E3D"/>
<path d="M12.1666 25H15.5V28.3333H12.1666V25Z" fill="#14171F"/>
</g>
<defs>
<clipPath id="clip0_202_24">
<rect width="40" height="40" fill="white" transform="translate(0.5)"/>
</clipPath>
</defs>
</svg>

<svg width="41" height="40" fill="none" xmlns="http://www.w3.org/2000/svg"><g clip-path="url(#a)"><path fill="#7595FD" d="M.5 16.667h23.333V40H.5z"/><path d="M32.152 3.333H15.517a3.348 3.348 0 0 0-3.35 3.35v9.395L4.33 23.815a1.667 1.667 0 0 0 1.17 2.852V35a1.667 1.667 0 0 0 1.667 1.667h26.666A1.667 1.667 0 0 0 35.5 35V6.682a3.346 3.346 0 0 0-3.348-3.349ZM18.703 25.185v8.148h-9.87v-9.28l4.979-4.915 4.891 5.005v1.042ZM22.167 15h-3.334v-3.333h3.334V15Zm6.666 13.333H25.5V25h3.333v3.333Zm0-6.666H25.5v-3.334h3.333v3.334Zm0-6.667H25.5v-3.333h3.333V15Z" fill="#292E3D"/><path d="M12.167 25H15.5v3.333h-3.333V25Z" fill="#14171F"/></g><defs><clipPath id="a"><path fill="#fff" transform="translate(.5)" d="M0 0h40v40H0z"/></clipPath></defs></svg>
